X:1
T:Title
%%score { ( 1 3 ) | 2 }
L:1/8
M:4/4
K:F
V:1 treble nm="Grand Piano"
V:3 treble 
V:2 bass 
V:1
 z4 z2[Q:1/4=94] FG | A[Ac][GB][FA] [EG]2 [EA]G | F2 D2 C2 FA | [EG][GB][FA][EG] [FA]2 [Ac]A | %4
[M:9/8] G2 =B- B [Ec]2- [Ec][Ec][G_B] |[M:4/4] AAAA A[Ac][GB][FA] | %6
 [EG][EG][EG][EG] [EG][GB][FA][EG] | FFFF F[A,FA][A,EG][A,DF] |[M:3/4] [A,^CE]2 [CEA]2 [CEA]2 | %9
[M:1/4] [CEA][CEG] |[M:4/4] F2- [B,F-]2 [B,F]2 [DB][Fd] | [Fc]6 z2 | [EG]6 z2 | [FA]6 z2 | %14
 AAAA A[Ac][GB][FA] | [DB][DB][DB][DB] [DB][Fd][CFc][DFB] | [FA]6 z2 |[M:3/4] [A,F]6 |] %18
V:2
 z4 z2 [F,A,][F,B,E] | [F,CF][F,C][F,A,][F,C] [C,C]2 [C,C][C,B,C] | %2
 [F,A,C]2 [F,B,]2 [F,A,]2 [F,A,C][F,CF] | [C,C][C,C][C,C][C,C] [F,C]2 [F,C][K:treble][F,CF] | %4
[M:9/8] [G,CE]2 [G,F]- [G,F][K:bass] [C,G,]2- [C,G,][C,G,][C,C] | %5
[M:4/4] [F,CF][F,CF][F,CF][F,CF] [F,CF][F,C][F,C][F,C] | %6
 [C,C][C,C][C,C][C,C] [C,C][C,C][C,C][C,B,] | [D,A,D][D,A,D][D,A,D][D,A,D] [D,A,D]D,D,D, | %8
[M:3/4] A,,2 A,,2 A,,2 |[M:1/4] A,,A,, |[M:4/4] B,,2 B,,2 B,,2 [B,,F,][B,,B,] | %11
 [F,A,]2 F,2 F,2 [F,A,][F,CF] | [C,C]2 C,2 C,2 C,C, | F,2 F,2 F,2 [F,A,][F,B,E] | %14
 [F,CF][F,CF][F,CF][F,CF] [F,CF][F,C][F,C][F,C] | %15
 [B,,B,][B,,B,][B,,B,][B,,B,] [B,,B,][B,,B,]A,,B,, | C,2 C,>C, C,2 C,2 |[M:3/4] F,6 |] %18
V:3
 x8 | x8 | x8 | x8 |[M:9/8] x9 |[M:4/4] x8 | x8 | x8 |[M:3/4] x6 |[M:1/4] x2 |[M:4/4] D2 z2 z4 | %11
 z2 A,2 A,2 FA | z2 C2 C2 [CFA][CGB] | C2 C2 C2 FG | x8 | x8 | C2 C>C C2 [B,EG]2 |[M:3/4] x6 |] %18

